assets/svg/more.svg

<?xml version="1.0" encoding="UTF-8"?>
<svg width="1000px" height="1000px" viewBox="0 0 1000 1000" version="1.1" xmlns="http://www.w3.org/2000/svg" xmlns:xlink="http://www.w3.org/1999/xlink">
    <!-- Generator: sketchtool 52.4 (67378) - http://www.bohemiancoding.com/sketch -->
    <title>more</title>
    <desc>Created with sketchtool.</desc>
    <g id="旧版图标(剩余)" stroke="none" stroke-width="1" fill="none" fill-rule="evenodd">
        <path d="M497,1000 C220.857625,1000 -3,776.142375 -3,500 C-3,223.857625 220.857625,0 497,0 C773.142375,0 997,223.857625 997,500 C997,776.142375 773.142375,1000 497,1000 Z M246.252243,561.316052 C280.39148,561.316052 308.0668,533.640732 308.0668,499.501496 C308.0668,465.362259 280.39148,437.686939 246.252243,437.686939 C212.113006,437.686939 184.437687,465.362259 184.437687,499.501496 C184.437687,533.640732 212.113006,561.316052 246.252243,561.316052 Z M496.501496,561.316052 C530.640732,561.316052 558.316052,533.640732 558.316052,499.501496 C558.316052,465.362259 530.640732,437.686939 496.501496,437.686939 C462.362259,437.686939 434.686939,465.362259 434.686939,499.501496 C434.686939,533.640732 462.362259,561.316052 496.501496,561.316052 Z M747.747757,561.316052 C781.886994,561.316052 809.562313,533.640732 809.562313,499.501496 C809.562313,465.362259 781.886994,437.686939 747.747757,437.686939 C713.60852,437.686939 685.9332,465.362259 685.9332,499.501496 C685.9332,533.640732 713.60852,561.316052 747.747757,561.316052 Z" id="more" fill="#666666"></path>
    </g>
</svg>

<svg width="1000" height="1000" xmlns="http://www.w3.org/2000/svg"><path d="M497 1000C220.858 1000-3 776.142-3 500S220.858 0 497 0s500 223.858 500 500-223.858 500-500 500zM246.252 561.316c34.14 0 61.815-27.675 61.815-61.815 0-34.139-27.676-61.814-61.815-61.814-34.139 0-61.814 27.675-61.814 61.814 0 34.14 27.675 61.815 61.814 61.815zm250.25 0c34.139 0 61.814-27.675 61.814-61.815 0-34.139-27.675-61.814-61.815-61.814-34.139 0-61.814 27.675-61.814 61.814 0 34.14 27.675 61.815 61.814 61.815zm251.246 0c34.139 0 61.814-27.675 61.814-61.815 0-34.139-27.675-61.814-61.814-61.814-34.14 0-61.815 27.675-61.815 61.814 0 34.14 27.676 61.815 61.815 61.815z" fill="#666" fill-rule="evenodd"/></svg>
